X: 11044
T: JAKE STEWART'S
C: Bob McQuillen 23 March 2000
B: Bob's Note Book 11 #44
%R: reel
Z: 2020 John Chambers <jc:trillian.mit.edu>
M: C
L: 1/8
K: D
dB \
| AFAd fdAF | GBed cAFE | D2FA GBAG | FAdf e2dB |
| AFAd fdAF | GBed cAFE | D2FA GBAG | FAdc d2  :|
|: cd \
| e2de fdAd | cdeg fdd2 | fdfa gfeg | fedf e2AG |
| FAde dAFA | BGBd g2ag | fAdf gAcd | eddc d2  :|
%%begintext align
%% Mary and Garry
%% Stewart live in Bow, NH, right near Concord, our Capitol,
%% and they have a real nice son named Jake. Jake is a
%% very fine fiddler; he was one [of] our New Hampshire
%% musicians at the '99 Smithsonian Folklife Festival in
%% Washingon, D.C.. Try this one, Jake - I sure hope you like it.
%%endtext

%%sep 1 1 500

%%sep 1 1 500

